X: 129016
T: RUSTIC REEL
%R: jig
B: James Kerr "Merry Melodies" v.1 p.29 s.0 #16
Z: 2017 John Chambers <jc:trillian.mit.edu>
M: 6/8
L: 1/8
K: D
N: The segno symbol is obscured, but is there and agrees with the D.C. at the end.
|: uA !segno!|\
vf2ve dcB | vA2vF uD2uE | FGF FED | F3 E2 uA |\
vf2ve dcB | A2F D2E | FGF EDE | D3 D2 H:|
uA |\
vg2ve uf2ud | c2d ecA | g2e f2d | cec A2A |\
g2e f2d | cde fga | ece dcB | A2B cd"_D.C."e |]

%%sep 1 1 500
%%sep 1 1 500

